brandFactory_export/2.Regular/Reportar_2Regular.svg

<?xml version="1.0" encoding="UTF-8"?>
<svg width="24px" height="24px" viewBox="0 0 24 24" version="1.1" xmlns="http://www.w3.org/2000/svg" xmlns:xlink="http://www.w3.org/1999/xlink">
    <title>2.Regular/Reportar_2Regular</title>
    <g id="Symbols" stroke="none" stroke-width="1" fill="none" fill-rule="evenodd">
        <g id="2.Regular/Reportar_2Regular" fill="#5CB615" fill-rule="nonzero">
            <path d="M22.4890756,9.5697479 C22.189916,9.86554622 18.9596639,12.7462185 13.6319328,17.4655462 L13.4033613,17.6504202 L8.89243697,19.1428571 C8.82857143,19.1596639 8.76806723,19.1462185 8.72773109,19.1058824 C8.68403361,19.0621849 8.67058824,19.0016807 8.6907563,18.9445378 L10.2470588,14.3663866 C13.1915966,11.7647059 18.8655462,6.7394958 19.2621849,6.34285714 C19.7394958,5.86554622 20.3042017,5.6605042 20.8554622,5.6605042 C21.4739496,5.6605042 22.0722689,5.91932773 22.4957983,6.34285714 C22.9260504,6.77310924 23.1815126,7.39159664 23.178184,7.99327731 C23.178184,8.58151261 22.9394958,9.12605042 22.4890756,9.5697479 L22.4890756,9.5697479 Z M20.1260504,18.6722689 C20.1260504,19.7680672 19.8403361,20.6285714 19.2823529,21.2268908 C18.6907563,21.8588235 17.810084,22.1781513 16.6605042,22.1781513 L5.91092437,22.1781513 C4.76134454,22.1781513 3.88067227,21.8588235 3.28907563,21.2268908 C2.72773109,20.6285714 2.44537815,19.7714286 2.44537815,18.6722689 L2.44537815,5.01176471 C2.44537815,2.71260504 3.67563025,1.44537815 5.91092437,1.44537815 L16.6605042,1.44537815 C18.6470588,1.44537815 19.8336134,2.46722689 20.0722689,4.31260504 C19.4,4.46722689 18.7647059,4.8 18.2470588,5.31764706 C17.9411765,5.62352941 13.4067227,9.64705882 9.29915966,13.2806723 C9.08739496,13.4655462 8.92941176,13.7042017 8.83865546,13.9731092 L7.32605042,18.4840336 C7.13109244,19.0621849 7.2789916,19.6941176 7.7092437,20.1277311 C8.01512605,20.4336134 8.41848739,20.5983193 8.84537815,20.5983193 C9.01680672,20.5983193 9.18487395,20.5714286 9.34957983,20.5176471 L13.8605042,19.0252101 C14.0655462,18.9579832 14.2605042,18.8470588 14.4218487,18.702521 L14.5932773,18.5512605 C16.4386555,16.9176471 18.4655462,15.1159664 20.1294118,13.6369748 L20.1294118,18.6722689 L20.1260504,18.6722689 Z M24.6235498,7.99663866 C24.6268908,7.01848739 24.2134454,6.01680672 23.5176471,5.31764706 C22.9764706,4.77647059 22.2638655,4.42352941 21.5109244,4.28235294 C21.2285714,1.63361345 19.4201681,0 16.6571429,0 L5.91092437,0 C2.88235294,0 1,1.91932773 1,5.01176471 L1,18.6722689 C1,20.1478992 1.41344538,21.3411765 2.23361345,22.2151261 C3.10756303,23.1495798 4.34117647,23.6235294 5.90756303,23.6235294 L16.6571429,23.6235294 C18.2201681,23.6235294 19.4605042,23.1495798 20.3344538,22.2151261 C21.1546218,21.3411765 21.5714286,20.1478992 21.5714286,18.6722689 L21.5714286,12.3462185 C22.6201681,11.4084034 23.3529412,10.7495798 23.5042017,10.5983193 C24.2336134,9.8789916 24.6201681,8.97815126 24.6235498,7.99663866 Z" id="Reportar_2Regular"></path>
        </g>
    </g>
</svg>

<svg width="24" height="24" viewBox="0 0 24 24" xmlns="http://www.w3.org/2000/svg"><path d="M22.49 9.57c-.3.296-3.53 3.176-8.858 7.896l-.229.184-4.51 1.493c-.064.017-.125.003-.165-.037a.152.152 0 01-.037-.161l1.556-4.579c2.945-2.601 8.619-7.627 9.015-8.023.477-.477 1.042-.682 1.593-.682.619 0 1.217.258 1.64.682.431.43.687 1.049.683 1.65 0 .589-.239 1.133-.689 1.577zm-2.364 9.102c0 1.096-.286 1.957-.844 2.555-.591.632-1.472.951-2.621.951H5.91c-1.15 0-2.03-.32-2.622-.951-.561-.598-.844-1.456-.844-2.555V5.012c0-2.3 1.23-3.567 3.466-3.567h10.75c1.986 0 3.173 1.022 3.411 2.868a3.76 3.76 0 00-1.825 1.005c-.306.306-4.84 4.33-8.948 7.963-.212.185-.37.423-.46.692l-1.513 4.511a1.6 1.6 0 001.52 2.114c.17 0 .339-.027.504-.08l4.51-1.493c.206-.067.4-.178.562-.322l.171-.152c1.846-1.633 3.873-3.435 5.536-4.914v5.035h-.003zm4.498-10.675a3.861 3.861 0 00-1.106-2.68 3.84 3.84 0 00-2.007-1.035C21.229 1.634 19.42 0 16.657 0H5.911C2.882 0 1 1.92 1 5.012v13.66c0 1.476.413 2.67 1.234 3.543.874.935 2.107 1.409 3.674 1.409h10.75c1.562 0 2.803-.474 3.676-1.409.82-.874 1.237-2.067 1.237-3.543v-6.326c1.05-.938 1.782-1.596 1.933-1.748.73-.719 1.116-1.62 1.12-2.601z" fill="#5CB615" fill-rule="nonzero"/></svg>
